X:1
T:Liszt - Sancta Dorothea. {Professional production score.}
%%score { ( 1 2 ) | ( 3 4 5 ) }
L:1/8
Q:1/4=85
M:4/4
K:E
V:1 treble nm="Piano" snm="Pno."
V:2 treble 
V:3 treble 
V:4 treble 
V:5 treble 
V:1
"^Andante." z4 !4!f4 | f4 f4 | !5!f4 f4 |[Q:1/4=75] f4[Q:1/4=70] f4[Q:1/4=73] | %4
!p!"_dolce semplice"[Q:1/4=75] !4!g2[Q:1/4=78] b2[Q:1/4=80] a2[Q:1/4=83] b2 | %5
[Q:1/4=90] !4!g2 b2 c'2 b2 | g2 a2 b4 | g4 f4[Q:1/4=85] |!p![Q:1/4=90] !4!^e2 g2 f2 g2 | %9
 ^e2 g2 ^a2 g2 | ^e2 f2 g4 | !4!^e4 !5!d4 |!p! !4!c2 f2 ^e2 f2 | !2!d4 g2 f2 |!p! c2 f2 ^e2 f2 | %15
!<(! d4{/!4!^a} g2 f2!<)! |!mp!!>(! ([c-f-c']8[Q:1/4=85][Q:1/4=90][Q:1/4=85][Q:1/4=90] | %17
 [cf^a]2) z2 z4!>)! |!p! (3^A,CF(3^AFC (3A,CF(3AFC | %19
!p!!p!"^ritard."[Q:1/4=85] (3=A,CF(3=AFC (3A,CF[Q:1/4=80](3AFC | %20
!p!"_un  poco  piu  cresc."[Q:1/4=90] !4!G2 B2 A2 B2 |"_cresc." G2 B2 c2 B2 | G2 A2 B4 | G4 F4 | %24
!p! ^E2 G2 F2 G2 | ^E2 G2 ^A2 G2 | ^E2 F2 G4 | !4!^E4 !5!D4 | C2 F2 ^E2 F2 | (C4 !arpeggio!G2 F2) | %30
 C2 F2 ^E2 F2 | D4 (!arpeggio!^A2 G2) |"_dolce  espress." (c4 !4!B2 c2 | !arpeggio!!4!^A4) z4 | %34
 (!arpeggio!^A4 !4!G2 A2 | !arpeggio!!3!F4) z4 | (!arpeggio!F4 ^E2 F2 | %37
 !arpeggio!D4)[K:bass]"^un  poco  rallent."[Q:1/4=80]"_cresc." [D,F,D]4[Q:1/4=70] | %38
[Q:1/4=60] !4![D,B,D]4 !>![D,^A,D]2 !>![D,B,D]2 | !>![D,G,D]4 [D,=A,D]2 [D,B,D]2 | %40
!mp! [E,G,E]6 !3![E,G,B,]2 | %41
 !2!!3!!5![G,B,E]2[K:treble] !2![B,EG]2"_dim." !2![EGB]2 !2!!3!!5![GBe]2 | %42
!p![Q:1/4=85] !1!!2!!4![Geg]2"_dolce" [Beb]2 [Bea]2 [Beb]2 | %43
[Q:1/4=75]!<(! !3![Beg]2 [Bea]2!<)!!p! [ec']4- | %44
!>(! [ec']2[Q:1/4=70] [eb]2 [eg]2[Q:1/4=60] [ea]2!>)! | [eb]2 z2 z4 |!pp![Q:1/4=50] [ebe']2 z2 z4 | %47
[Q:1/4=30] [ege']2 z2 !fermata!z4 |] %48
V:2
 x4 (3fcA z2 | (3fcA z2 (3fcA z2 | (3fcA z2 (3fcA z2 | (3fBA z2 (3fBA z2 | %4
 (3geB (3beB (3aeB (3beB | (3geB (3beB (3c'eB (3beB | (3geB (3aeB (3beB z2 | (3geB z2 (3f^BG z2 | %8
 (3^ecG (3gcG (3fcG (3gcG | (3^ecG (3gcG (3^acG (3gcG | (3^ecG (3fcG (3gcG z2 | %11
 (3^ecG z2 (3dG^E z2 | (3c^AF (3fAF (3^eAF (3fAF | x8 | (3c^AF (3fAF (3^eAF (3fAF | x8 | x8 | x8 | %18
 x8 | x8 | (3GEB, (3BEB, (3AEB, (3BEB, | (3GEB, (3BEB, (3cEB, (3BEB, | (3GEB, (3AEB, (3BEB, z2 | %23
 (3GEB, z2 (3F^B,G, z2 | (3^ECG, (3GCG, (3FCG, (3GCG, | (3^ECG, (3GCG, (3^ACG, (3GCG, | %26
 (3^ECG, (3FCG, (3GCG, z2 | (3^ECG,z2(3x[I:staff +1]!2!G,!1!E,[I:staff -1] z2 | %28
 (3C[I:staff +1]^A,F,[I:staff -1] (3F[I:staff +1]A,F,[I:staff -1] (3^E[I:staff +1]A,F,[I:staff -1] (3F[I:staff +1]A,F, | %29
 x8 | %30
[I:staff -1] (3C[I:staff +1]^A,F,[I:staff -1] (3F[I:staff +1]A,F,[I:staff -1] (3^E[I:staff +1]A,F,[I:staff -1] (3F[I:staff +1]A,F, | %31
 x4[I:staff -1] [G,D]4 | [CF]4 [CF]4 | [CF]4 x4 | [^A,D]4 [A,D]4 | [^A,D]4 x4 | x8 | %37
 x4[K:bass] x4 | x8 | x8 | x8 | x2[K:treble] x6 | x8 | x8 | x8 | x8 | x8 | x8 |] %48
V:3
 z2!p!!ped! (3CF"_una corda"A z2 (3CFA | z2 (3CFA z2 (3CFA!ped-up! | %2
!ped! z2 (3DFA z2 (3DFA!ped-up! |!ped! z2 (3DFB z2 (3DF!p!B!ped-up! | !4!E2 G2 F2 G2 | %5
 E2 G2 A2 G2 | E2 F2!ped! !2!G2 (3!3!GBe | z2 (3EGB!ped! z2 (3DG^B!ped-up! | !4!C2 !2!^E2 D2 E2 | %9
 C2 ^E2 !1!F2 E2 | C2 D2!ped-up!!ped! ^E2 (3!3!EGc | z2 (3C^EG!ped! z2 (3B,EA!ped-up! | %12
 (!5!^A,4 !4!C2 D2) |!ped! (6:4:6B,DFGFD!ped-up! (6:4:6B,DFGFD |!ped! (^A,4 C2 D2)!ped-up! | %15
!ped! (6:4:6B,DFGFD (6:4:6B,DFGFD!ped-up! | %16
!ped! (3^A,CF (3!tenuto!^AFC!ped-up!!ped! (3G,CF (3!tenuto!GFC!ped-up! | %17
!ped! (3^A,CF (3^AFC!ped-up!!ped! (3G,CF (3GFC!ped-up! | z8 | %19
[K:bass]!ped! ([F,,F,]6 [E,,E,]2)!ped-up! | E,2 !2!G,2 F,2 G,2 | E,2 G,2 A,2 G,2 | %22
 E,2 F,2 G,2 (3G,B,E | z2 (3E,G,B, z2 (3D,G,^B, | !4!C,2 !2!^E,2 D,2 E,2 | C,2 ^E,2 !1!F,2 !2!E,2 | %26
 C,2 D,2!ped! !2!^E,2 (3E,G,C!ped-up! | z2 (3!4!C,^E,G,!ped! x2 (3!5!B,,E,G,!ped-up! | %28
 (^A,,4 C,2 D,2) |!ped! [F,G,]4 [F,D]4!ped-up! | (!4!^A,,4 !2!C,2 D,2) | %31
!ped! [F,G,]4 (6:4:6B,,D,F,G,F,D,!ped-up! |!ped! [^A,,^A,]4!ped-up!!ped! [G,,G,]4!ped-up! | %33
!ped! [^A,,^A,]4 [G,,G,]2 [A,,A,]2!ped-up! |!ped! [F,,F,]4!ped-up! [^E,,^E,]4 | %35
!ped! [F,,F,]4 [^E,,^E,]2 [F,,F,]2!ped-up! |!ped! [F,B,]4!ped-up!!ped! [F,B,]4 | %37
 [F,B,]4 ^A,,2 B,,2 | [G,,,G,,]4 !>![F,,,F,,]2 !>![G,,,G,,]2 | %39
 !>![B,,,B,,]4 [F,,,F,,]2 [G,,,G,,]2 |!ped! [E,,,E,,]8!ped-up! | z8 |[K:treble] (!4!E2 G2 F2 G2 | %43
 E2 F2 [Ac]4- | [Ac]2 !3![GB]2 [EB]2 [FB]2 |!ped! [GB]2) z2 z4!ped-up! | [GB]2 z2 z4 | %47
 [EB]2 z2 !fermata!z4 |] %48
V:4
 x8 | x8 | x8 | x8 | x8 | x8 | x8 | x8 | x8 | x8 | x8 | x8 | x8 | x8 | x8 | x8 | x8 | x8 | x8 | %19
[K:bass] x8 | E,,4 x4 | x8 | x8 | x8 | x8 | x8 | x8 | x8 | x8 | %29
 (6:4:6B,,G,,F,,B,,,F,,G,, (6:4:6B,,G,,F,,B,,,F,,G,, | x8 | (6:4:6B,,G,,F,,B,,,F,,G,, x4 | %32
 (6:4:6^A,,C,F,^A,F,C, (6:4:6G,,C,F,G,F,C, | (6:4:6^A,,C,F,^A,F,C, (3G,,C,F, (3A,,C,F, | %34
 (6:4:6F,,^A,,D,F,D,A,, (6:4:6^E,,A,,D,^E,D,A,, | (6:4:6F,,^A,,D,F,D,A,, (3^E,,A,,D, (3F,,A,,D, | %36
 (6:4:6D,,F,,B,,D,B,,F,, (6:4:6C,,F,,B,,C,B,,F,, | %37
 (6:4:6D,,F,,B,,D,B,,F,, (3^A,,,F,,D,, (3A,,,F,,D,, | x8 | x8 | x8 | x8 |[K:treble] x8 | x8 | x8 | %45
 x8 | x8 | x8 |] %48
V:5
 x8 | x8 | x8 | x8 | x8 | x8 | x8 | x8 | x8 | x8 | x8 | x8 | x8 | x8 | x8 | x8 | x8 | x8 | x8 | %19
[K:bass] x8 | x8 | x8 | x8 | x8 | x8 | x8 | x8 | x8 | x8 | x8 | x8 | x8 | x8 | x8 | x8 | x8 | %36
 [D,,D,]4 [C,,C,]4 | [D,,D,]4 x4 | x8 | x8 | x8 | x8 |[K:treble] x8 | x8 | x8 | x8 | x8 | x8 |] %48

